X:741
T:Silent Night harmony
S:Adapted and changed from The Mandolinist's Treasury
Z:Nigel Gatherer
M:6/8
L:1/8
Q:130
K:D
f2A d2A | f2A d2A | c2c G2G | F2D A2D ||
F>GF D3  | F>GF D3  | c2A G2E | A2F F2D |
G2D  GGG | F>GF D3  | G2D  GGG | F>GF D3  |
c2A  ccG | F2D  d2A | FDA, GCA, | A,6    ||
A,6      | A,6      | A,6      | A,6     ||     
[D2A2f2][DAf] [A,2F2d2][A,Fd] | [D2A2f2][DAf] [A,2F2d2][A,Fd] | 
[E2c2g2][Ecg] [A,2E2c2][A,Ec] | [A,2F2d2][A,Fd] [A,2F2d2][A,Fd] |
[D2B2g2][DBg] [G,2D2B2][G,DB] | [D2A2f2][DAf] [A,2F2d2][A,Fd] | 
[D2B2g2][DBg] [G,2D2B2][G,DB] | [D2A2f2][DAf] [A,2F2d2][A,Fd] |
c2A  ccG | F2D  d2A | FDA, GCA, | F2F D2D |
F2D F2D | D6 | d'6- | d'2 z z3 |]
